svg/ricky/sitting/emotion/lookingleft.svg

<?xml version="1.0" encoding="UTF-8"?>
<svg width="500px" height="600px" viewBox="0 0 500 600" version="1.1" xmlns="http://www.w3.org/2000/svg" xmlns:xlink="http://www.w3.org/1999/xlink">
    <title>lookingleft</title>
    <defs>
        <polygon id="path-1" points="0 0.454 182.161928 0.454 182.161928 198.107306 0 198.107306"></polygon>
    </defs>
    <g id="lookingleft" stroke="none" stroke-width="1" fill="none" fill-rule="evenodd">
        <g transform="translate(169.000000, 58.000000)">
            <g id="face" transform="translate(0.000000, 0.546000)">
                <mask id="mask-2" fill="white">
                    <use xlink:href="#path-1"></use>
                </mask>
                <g id="Clip-4"></g>
                <path d="M172.4951,104.5348 C172.2271,106.0478 171.9271,107.5578 171.6161,109.0678 C171.5471,109.3018 171.4961,109.5398 171.4651,109.7828 C170.8131,112.8968 170.1031,116.0028 169.4091,119.0968 C169.0261,120.8038 168.5471,123.0968 166.9181,124.0888 C165.9881,124.6538 163.3321,124.4498 163.5591,122.8538 C163.6081,122.5108 163.4941,122.2268 163.3071,122.0128 C163.4401,113.2758 162.1381,104.6228 160.4871,95.9928 C161.0541,95.9068 161.5741,95.5838 161.9291,95.0488 C161.9981,94.9428 162.0691,94.8388 162.1421,94.7358 C162.1531,94.7218 162.1871,94.6758 162.2181,94.6348 C162.2661,94.5758 162.3241,94.5058 162.3401,94.4858 C162.4061,94.4098 162.4731,94.3348 162.5401,94.2608 C162.8651,93.9038 163.2241,93.5968 163.5811,93.2758 C163.5861,93.2708 163.5851,93.2708 163.5891,93.2668 C163.5911,93.2658 163.5921,93.2658 163.5941,93.2638 C163.6761,93.2058 163.7571,93.1468 163.8401,93.0898 C164.0261,92.9608 164.2181,92.8388 164.4121,92.7218 C164.6071,92.6058 164.8061,92.4958 165.0081,92.3918 C165.1201,92.3348 165.2331,92.2788 165.3481,92.2248 C165.3931,92.2038 165.4391,92.1828 165.4851,92.1628 C165.6201,92.1018 165.5771,92.1198 165.3551,92.2148 C165.4451,92.1018 165.8661,92.0198 165.9931,91.9768 C166.2081,91.9048 166.4261,91.8398 166.6451,91.7818 C166.8641,91.7238 167.0861,91.6738 167.3081,91.6298 C167.4071,91.6098 167.5071,91.5938 167.6061,91.5768 C167.6041,91.5758 167.5981,91.5758 167.5971,91.5738 C167.5981,91.5748 167.6051,91.5748 167.6071,91.5758 C167.6311,91.5718 167.6561,91.5668 167.6801,91.5628 C167.9671,91.5138 167.7131,91.5818 167.6241,91.5798 C167.6891,91.5878 167.8741,91.5698 168.0451,91.5518 C168.6461,91.7498 169.2171,92.0358 169.7081,92.4348 C173.2711,95.3348 173.2231,100.4238 172.4951,104.5348 M161.2831,124.2968 C161.2001,125.8998 161.0471,127.5068 160.8581,129.1098 C160.6391,129.7178 160.5671,130.3768 160.6211,131.0258 C160.3781,132.6878 160.0411,134.3358 159.6641,135.9728 C158.3251,140.1538 156.4061,144.1128 153.9711,147.7618 C153.9631,147.7518 153.9551,147.7428 153.9471,147.7338 C151.0921,150.9958 147.7301,153.8308 144.2551,156.4338 C137.7361,161.3178 130.9761,165.9078 124.2101,170.4388 C120.2021,173.1238 116.1631,175.7628 112.0981,178.3598 C111.8861,178.4948 111.7571,178.6708 111.6901,178.8588 C110.3641,179.6868 108.9971,180.4388 107.5411,181.0268 C102.1041,183.2248 96.3291,182.2228 90.9911,180.2488 C85.9741,178.3928 81.1671,175.8688 76.4031,173.4478 C67.8811,169.1178 59.4001,164.2838 52.4831,157.5978 C45.3171,150.6688 40.7261,141.9398 39.1751,132.0818 C37.5681,121.8618 38.9211,111.3828 40.3221,101.2218 C40.9891,96.3798 41.6931,91.5178 42.2201,86.6418 C47.0191,89.1968 52.1331,89.7658 55.9271,83.8618 C57.7011,81.1018 58.8521,78.0018 59.5441,74.7688 C62.2881,76.5688 65.3011,77.5268 68.6181,76.6228 C71.8371,75.7458 74.3921,73.2308 75.8501,70.3068 C77.1101,67.7798 76.8531,64.4998 78.1591,62.1128 C81.2191,63.8328 84.6021,64.9108 88.0681,65.0388 C96.0061,65.3318 100.3841,59.3058 102.8571,52.5158 C106.7641,54.5588 111.7011,54.5848 115.5461,52.3168 C115.7961,52.9458 116.0841,53.5578 116.4071,54.1558 C117.8981,58.6388 121.8501,62.1958 126.4201,63.5418 C129.4091,64.4218 132.5621,64.2708 135.4061,62.9848 C135.4701,62.9558 135.5381,62.9188 135.6031,62.8888 C135.5601,68.8058 136.8211,74.5628 141.2261,79.1488 C145.1591,83.2438 150.8261,84.8758 156.0271,83.8138 C156.0431,83.8948 156.0581,83.9768 156.0741,84.0578 C156.0781,84.1838 156.0861,84.3088 156.0901,84.4348 C156.1191,85.3178 156.3291,86.1558 156.6541,86.9398 C157.0131,88.7058 157.3731,90.4718 157.7281,92.2348 C159.8501,102.7668 161.8401,113.5068 161.2831,124.2968 M102.5171,191.1338 C100.9611,193.6618 98.6391,196.3538 95.3951,196.0898 C92.2731,195.8358 90.5791,192.7128 89.3451,190.1258 C89.4201,189.9918 89.4731,189.8388 89.4731,189.6478 L89.4731,181.8078 C92.8151,183.1188 96.2751,184.1038 99.8711,184.2868 C100.7211,184.3298 101.5471,184.2938 102.3631,184.2238 L102.3631,190.6398 C102.3631,190.8218 102.4281,190.9838 102.5171,191.1338 M36.5171,123.3428 C36.4691,123.3648 36.4211,123.3898 36.3841,123.4308 C36.2991,123.5238 36.2271,123.6528 36.2381,123.7838 C36.2411,123.8218 36.2371,123.8598 36.2351,123.8968 C36.2271,123.9328 36.2171,123.9698 36.2061,124.0038 C36.1911,124.0338 36.1741,124.0618 36.1561,124.0908 C36.1181,124.1288 36.0801,124.1678 36.0421,124.2058 C35.9611,124.2878 35.9151,124.4018 35.9041,124.5158 C35.9001,124.5158 35.8961,124.5148 35.8921,124.5138 C35.6331,124.3788 35.3141,124.3528 34.9811,124.5328 C33.1081,125.5438 31.2871,123.8278 30.1461,122.4668 C28.8011,120.8638 27.8761,118.8898 26.9271,117.0418 C24.9471,113.1828 23.2241,108.8798 23.8311,104.4588 C24.3061,100.9988 26.3011,97.2648 29.9331,96.3768 C32.8951,95.6508 36.6421,96.8918 37.5941,100.0198 C37.7191,100.4328 38.0251,100.6348 38.3561,100.6898 C37.2921,108.2228 36.3861,115.7638 36.5171,123.3428 M99.1861,3.8298 C97.7151,3.2468 96.1901,2.8028 94.6211,2.5078 C96.2191,2.6428 97.7661,3.1048 99.1861,3.8298 M182.0231,100.6848 C181.8711,99.5388 181.5481,98.4688 181.2441,97.3578 C180.8501,95.9198 181.1411,94.7438 181.4611,93.3278 C182.5071,88.6998 181.0171,83.7938 177.5941,80.5158 C180.6791,73.2678 178.8771,64.3448 173.0261,58.9868 C173.0781,57.6218 172.6671,56.4168 172.0161,55.3118 C171.5911,54.2518 170.9021,53.4058 170.0421,52.7818 C169.7541,52.4778 169.4601,52.1788 169.1621,51.8868 C169.0101,51.7368 168.8491,51.5888 168.6851,51.4388 C168.3391,48.5568 167.9761,45.6198 167.3021,42.8388 C167.2681,42.4048 167.2271,41.9718 167.1681,41.5388 C166.7271,38.2788 165.6721,34.4018 163.2761,31.9978 C161.6411,30.3568 158.9931,29.6468 156.9821,30.7428 C155.9231,28.1848 154.4301,25.7588 152.5491,23.7108 C151.5731,22.1758 150.3161,20.8308 148.6761,19.8188 C146.3261,18.3688 143.5991,18.2228 141.1571,18.9828 C140.6731,15.4698 138.3491,12.2778 134.8981,11.0208 C130.9131,9.5698 126.2501,11.2868 123.8151,14.6518 C121.5561,11.7758 118.9891,8.9398 115.4391,7.7808 C112.6981,6.8858 109.4351,7.1518 107.1321,8.9058 C107.0301,8.8088 106.9291,8.7038 106.8261,8.6098 C106.7511,8.5418 106.6691,8.4838 106.5931,8.4158 C104.1261,3.8708 99.3781,0.6848 94.1231,0.4658 C88.4871,0.2288 83.2191,3.5288 80.5491,8.3738 C76.7901,4.8588 70.7381,4.1578 66.2101,6.6228 C65.6171,6.9458 65.0611,7.3328 64.5381,7.7598 C63.9551,8.2338 63.4361,8.9798 62.7661,9.3248 C61.8281,9.8078 60.9351,9.0258 60.0921,8.6418 C59.3071,8.2848 58.4891,8.0098 57.6391,7.8498 C54.4171,7.2468 51.0171,8.0108 48.4661,10.0968 C46.2921,11.8748 44.9261,14.4958 44.5581,17.2568 C43.7051,18.3198 42.9841,19.4628 42.3831,20.6748 C38.1811,16.4308 30.0701,16.9058 26.9331,22.3048 C26.0241,23.8678 25.5991,25.6608 24.6981,27.2268 C24.3001,27.9188 23.8041,28.5728 23.0811,28.9488 C21.8831,29.5728 20.4451,29.3328 19.1511,29.2948 C15.1791,29.1788 12.1471,31.5748 10.8751,35.2988 C9.6241,38.9628 10.6841,42.6848 12.3671,46.0488 C12.6921,46.8598 13.0791,47.6458 13.5361,48.3998 C7.8171,50.4888 5.3271,58.4138 8.2561,63.6108 C8.2981,64.0828 8.3631,64.5518 8.4531,65.0148 C3.5581,66.7518 -0.1909,71.5248 0.0071,76.8858 C0.2091,82.3108 4.3151,86.9598 9.4431,88.2888 C4.5531,94.0438 6.4621,102.9228 10.1151,108.9788 C11.3131,110.9658 12.8261,112.6558 14.3191,114.4178 C16.1261,116.5508 17.0291,118.7768 17.7301,121.4558 C18.8921,125.9018 20.9641,129.7798 24.5661,132.7318 C28.3931,135.8688 33.2371,137.6478 38.2051,137.4258 C38.2451,137.4248 38.2721,137.4048 38.3101,137.3998 C39.9721,143.6498 42.8181,149.5058 47.0261,154.6378 C53.2311,162.2058 61.5791,167.7298 70.0891,172.3858 C74.4811,174.7878 78.9771,177.0038 83.4941,179.1608 C84.8321,179.8008 86.1911,180.4298 87.5681,181.0218 C87.5091,181.1458 87.4731,181.2898 87.4731,181.4578 L87.4731,189.2778 C87.2051,189.5648 87.0761,189.9868 87.2861,190.4328 C88.9081,193.8798 91.1401,197.7908 95.3951,198.0898 C99.5701,198.3828 102.6101,194.9458 104.5251,191.6758 C104.7901,191.2228 104.6531,190.7958 104.3631,190.5138 L104.3631,183.9458 C107.8281,183.2748 111.0141,181.6998 114.0421,179.6868 C113.9931,179.6518 113.9531,179.6028 113.9061,179.5658 C120.9491,175.0528 127.9131,170.4168 134.7811,165.6388 C141.0661,161.2678 147.6051,156.9678 153.0981,151.5958 C153.4861,151.2158 153.8411,150.8038 154.2151,150.4088 C154.4561,150.3648 154.6881,150.2358 154.8641,149.9898 C155.0941,149.6678 155.3121,149.3368 155.5331,149.0098 C155.5571,148.9818 155.5841,148.9568 155.6081,148.9298 C155.6031,148.9278 155.5981,148.9248 155.5931,148.9218 C157.8511,145.5668 159.6801,141.9398 161.0431,138.1358 C161.0971,138.1568 161.1531,138.1678 161.2061,138.1908 C161.3601,137.5978 161.4911,137.0008 161.6261,136.4038 C161.6791,136.2378 161.7381,136.0738 161.7891,135.9078 C161.8251,135.7888 161.8231,135.6828 161.8201,135.5778 C161.8271,135.5468 161.8361,135.5158 161.8421,135.4838 C161.9401,135.5258 162.0371,135.5678 162.1581,135.5798 C166.3061,135.9778 170.1361,134.0488 173.0911,131.2558 C176.1861,128.3298 179.1071,124.1068 179.6781,119.8078 C179.8121,118.7978 179.7931,117.7698 179.5531,116.7748 C179.2711,115.6038 178.3351,114.5098 178.6461,113.2698 C178.9011,112.2508 179.7281,111.3508 180.2251,110.4408 C180.7871,109.4098 181.2351,108.3018 181.5561,107.1728 C182.1531,105.0728 182.3091,102.8478 182.0231,100.6848" id="Fill-3" fill="#231F20" mask="url(#mask-2)"></path>
            </g>
            <g id="eyes" transform="translate(61.164635, 83.828007)" fill="#231F20">
                <path d="M30.1681649,29.772293 C29.4391649,34.419293 27.4351649,39.429293 23.9251649,42.681293 C19.7421649,46.557293 13.8871649,45.225293 10.3721649,41.156293 C7.15116486,37.426293 5.78816486,32.153293 5.78012852,27.312293 C5.77116486,22.039293 7.43416486,16.780293 10.5491649,12.517293 C10.8961649,12.526293 11.2361649,12.564293 11.5641649,12.632293 C11.5891649,12.586293 11.6171649,12.545293 11.6361649,12.493293 C12.8891649,9.02429298 17.9671649,8.62229298 20.9841649,9.43229298 C23.8671649,10.208293 26.0381649,12.104293 27.4111649,14.605293 C27.1931649,14.881293 27.1281649,15.259293 27.3851649,15.650293 C27.9441649,16.498293 28.4021649,17.391293 28.8031649,18.304293 C28.9251649,18.796293 29.0351649,19.292293 29.1341649,19.791293 C29.2071649,19.764293 29.2811649,19.739293 29.3531649,19.713293 C30.4551649,22.914293 30.7001649,26.382293 30.1681649,29.772293 M30.6731649,17.533293 C29.9301649,14.706293 28.6281649,11.962293 26.3691649,10.048293 C24.0721649,8.10429298 21.0751649,7.02329298 18.0631649,7.06729298 C15.3461649,7.10629298 12.3721649,8.06829298 10.6811649,10.213293 C10.3471649,10.020293 9.93116486,10.030293 9.61216486,10.436293 C2.81916486,19.079293 1.35716486,32.703293 8.30016486,41.755293 C11.6581649,46.134293 17.6871649,48.688293 22.8711649,45.896293 C27.5941649,43.352293 30.3681649,37.586293 31.6261649,32.597293 C32.8831649,27.609293 32.7221649,22.230293 30.6731649,17.533293" id="Fill-8"></path>
                <path d="M53.8241649,19.713693 C53.8971649,19.738693 53.9701649,19.764693 54.0431649,19.790693 C54.1421649,19.291693 54.2521649,18.796693 54.3741649,18.304693 C54.7751649,17.391693 55.2331649,16.497693 55.7921649,15.650693 C56.0501649,15.259693 55.9841649,14.881693 55.7661649,14.605693 C57.1401649,12.104693 59.3101649,10.207693 62.1931649,9.43269298 C65.2101649,8.62169298 70.2881649,9.02469298 71.5411649,12.492693 C71.5601649,12.545693 71.5881649,12.586693 71.6131649,12.632693 C71.9411649,12.564693 72.2811649,12.526693 72.6291649,12.517693 C75.7431649,16.779693 77.4061649,22.038693 77.3972012,27.312693 C77.3891649,32.152693 76.0261649,37.426693 72.8051649,41.155693 C69.2901649,45.225693 63.4351649,46.557693 59.2521649,42.681693 C55.7431649,39.429693 53.7391649,34.419693 53.0091649,29.772693 C52.4771649,26.382693 52.7221649,22.913693 53.8241649,19.713693 M51.5511649,32.597693 C52.8091649,37.586693 55.5841649,43.352693 60.3071649,45.896693 C65.4901649,48.688693 71.5201649,46.134693 74.8781649,41.755693 C81.8211649,32.702693 80.3591649,19.078693 73.5651649,10.436693 C73.2461649,10.029693 72.8301649,10.020693 72.4961649,10.213693 C70.8061649,8.06769298 67.8311649,7.10669298 65.1141649,7.06769298 C62.1021649,7.02369298 59.1051649,8.10469298 56.8091649,10.048693 C54.5491649,11.962693 53.2471649,14.705693 52.5041649,17.532693 C50.4561649,22.230693 50.2941649,27.609693 51.5511649,32.597693" id="Fill-10"></path>
                <path d="M13.7394649,0.899292985 C8.48546486,2.21929298 3.70046486,5.19129298 0.20646486,9.33329298 C-0.47353514,10.137293 0.68646486,11.308293 1.37046486,10.497293 C4.69646486,6.55529298 9.17446486,3.74529298 14.1774649,2.48829298 C15.2044649,2.22929298 14.7694649,0.640292985 13.7394649,0.899292985" id="Fill-12"></path>
                <path d="M76.7899649,4.56429298 C72.7179649,1.05629298 67.2559649,0.352292985 62.0859649,0.00229298452 C61.0279649,-0.0697070155 61.0319649,1.57729298 62.0859649,1.64929298 C66.7739649,1.96629298 71.9209649,2.53729298 75.6249649,5.72829298 C76.4249649,6.41729298 77.5949649,5.25629298 76.7899649,4.56429298" id="Fill-14"></path>
                <path d="M18.3715649,26.016493 C18.3485649,25.915493 18.3055649,25.820493 18.2785649,25.719493 C18.3475649,24.387493 18.1265649,23.077493 17.6605649,21.860493 C17.5215649,21.196493 17.3445649,20.543493 17.1075649,19.920493 C16.2555649,17.686493 14.4435649,15.591493 11.8125649,16.043493 C10.7775649,16.221493 9.88756486,16.756493 9.13156486,17.465493 C8.25856486,17.954493 7.47356486,18.620493 6.83056486,19.434493 C5.91556486,20.592493 5.36556486,21.952493 5.08656486,23.376493 C4.47056486,25.370493 4.44756486,27.568493 4.91156486,29.586493 C5.26056486,31.101493 6.03156486,32.599493 7.15956486,33.633493 C7.36656486,33.900493 7.58756486,34.156493 7.83156486,34.396493 C8.96356486,35.512493 10.4895649,36.075493 11.9905649,35.931493 C12.9535649,35.936493 13.9345649,35.684493 14.8645649,35.092493 C17.8005649,33.224493 19.1335649,29.340493 18.3715649,26.016493" id="Fill-18"></path>
                <path d="M63.6107649,18.867993 C60.4687649,16.245993 55.6157649,17.446993 53.2177649,20.501993 C52.4297649,21.505993 51.9587649,22.622993 51.7377649,23.781993 C50.8057649,24.700993 50.7187649,26.158993 51.0497649,27.489993 C51.0697649,28.854993 51.3967649,30.214993 52.0777649,31.408993 C52.5297649,32.200993 53.1267649,32.888993 53.8067649,33.477993 C53.9047649,33.576993 53.9897649,33.687993 54.0947649,33.777993 C54.6797649,34.281993 55.3297649,34.636993 56.0087649,34.872993 C57.0727649,35.334993 58.2257649,35.590993 59.3927649,35.582993 C59.4747649,35.582993 59.5367649,35.553993 59.6087649,35.537993 C59.9687649,35.514993 60.3317649,35.469993 60.6957649,35.367993 C62.6767649,34.817993 64.1727649,33.177993 65.0517649,31.378993 C66.8787649,27.640993 67.0897649,21.770993 63.6107649,18.867993" id="Fill-20"></path>
            </g>
            <path d="M109.9224,134.1111 C109.8374,133.5771 109.1714,133.2801 108.6924,133.4121 C108.1234,133.5681 107.9084,134.1071 107.9934,134.6421 C108.3924,137.1481 106.3584,139.8441 103.8584,140.2001 C101.2334,140.5741 98.5354,138.3231 98.3514,135.7011 C98.2624,134.4231 96.2614,134.4141 96.3514,135.7011 C96.5584,138.6611 98.7464,141.2381 101.6104,142.0071 C104.5004,142.7841 107.4284,141.3601 108.9744,138.8751 C109.8674,137.4381 110.1864,135.7731 109.9224,134.1111" id="nose" fill="#231F20"></path>
            <path d="M116.1497,153.4363 C113.0457,158.8743 107.0407,162.4563 100.7437,162.3743 C94.5767,162.2923 88.7627,158.7033 85.7487,153.3633 C85.1157,152.2423 83.3877,153.2493 84.0217,154.3733 C87.3787,160.3203 93.8877,164.2843 100.7437,164.3743 C107.7267,164.4643 114.4327,160.4793 117.8767,154.4453 C118.5157,153.3263 116.7887,152.3173 116.1497,153.4363" id="mouth" fill="#231F20"></path>
        </g>
    </g>
</svg>

<svg width="500" height="600" xmlns="http://www.w3.org/2000/svg" xmlns:xlink="http://www.w3.org/1999/xlink"><defs><path id="a" d="M0 .454h182.162v197.653H0z"/></defs><g fill="none" fill-rule="evenodd"><g transform="translate(169 58.546)"><mask id="b" fill="#fff"><use xlink:href="#a"/></mask><path d="M172.495 104.535a166.116 166.116 0 01-.879 4.533c-.069.234-.12.472-.15.715-.653 3.114-1.363 6.22-2.057 9.314-.383 1.707-.862 4-2.49 4.992-.93.565-3.587.36-3.36-1.235a1.024 1.024 0 00-.252-.841c.133-8.737-1.169-17.39-2.82-26.02a2.104 2.104 0 001.442-.944c.07-.106.14-.21.213-.313l.076-.101.122-.15.2-.224c.325-.357.684-.664 1.041-.985l.008-.01c.002 0 .003 0 .005-.002.082-.058.163-.117.246-.174a10.696 10.696 0 011.508-.865l.137-.062c.135-.061.092-.043-.13.052.09-.113.511-.195.638-.238a10.606 10.606 0 011.315-.347c.1-.02.2-.036.298-.053-.002-.001-.008-.001-.009-.003.001 0 .008 0 .01.002.024-.004.05-.01.073-.013.287-.05.033.019-.056.017.065.008.25-.01.421-.028a5.2 5.2 0 011.663.883c3.563 2.9 3.515 7.989 2.787 12.1m-11.212 19.762a73.72 73.72 0 01-.425 4.813 4.554 4.554 0 00-.237 1.916c-.243 1.662-.58 3.31-.957 4.947a47.122 47.122 0 01-5.693 11.789l-.024-.028c-2.855 3.262-6.217 6.097-9.692 8.7-6.519 4.884-13.279 9.474-20.045 14.005a665.89 665.89 0 01-12.112 7.92.974.974 0 00-.408.5c-1.326.828-2.693 1.58-4.149 2.168-5.437 2.198-11.212 1.196-16.55-.778-5.017-1.856-9.824-4.38-14.588-6.801-8.522-4.33-17.003-9.164-23.92-15.85-7.166-6.93-11.757-15.658-13.308-25.516-1.607-10.22-.254-20.7 1.147-30.86.667-4.842 1.371-9.704 1.898-14.58 4.8 2.555 9.913 3.124 13.707-2.78 1.774-2.76 2.925-5.86 3.617-9.093 2.744 1.8 5.757 2.758 9.074 1.854 3.22-.877 5.774-3.392 7.232-6.316 1.26-2.527 1.003-5.807 2.31-8.194 3.06 1.72 6.442 2.798 9.908 2.926 7.938.293 12.316-5.733 14.79-12.523 3.906 2.043 8.843 2.069 12.688-.2.25.63.538 1.242.861 1.84 1.491 4.483 5.443 8.04 10.013 9.386 2.99.88 6.142.729 8.986-.557.064-.03.132-.066.197-.096-.043 5.917 1.218 11.674 5.623 16.26 3.933 4.095 9.6 5.727 14.801 4.665l.047.244c.004.126.012.25.016.377.03.883.24 1.72.564 2.505.36 1.766.72 3.532 1.074 5.295 2.122 10.532 4.112 21.272 3.555 32.062m-58.766 66.837c-1.556 2.528-3.878 5.22-7.122 4.956-3.122-.254-4.816-3.377-6.05-5.964a.95.95 0 00.128-.478v-7.84c3.342 1.31 6.802 2.296 10.398 2.479.85.043 1.676.007 2.492-.063v6.416c0 .182.065.344.154.494m-66-67.791a.39.39 0 00-.133.088c-.085.093-.157.222-.146.353a.708.708 0 01-.003.113 1.199 1.199 0 01-.029.107c-.015.03-.032.058-.05.087l-.114.115a.513.513 0 00-.138.31l-.012-.002a.938.938 0 00-.91.019c-1.874 1.01-3.695-.705-4.836-2.066-1.345-1.603-2.27-3.577-3.219-5.425-1.98-3.86-3.703-8.162-3.096-12.583.475-3.46 2.47-7.194 6.102-8.082 2.962-.726 6.71.515 7.661 3.643a.92.92 0 00.762.67c-1.064 7.533-1.97 15.074-1.839 22.653M99.187 3.83a24.832 24.832 0 00-4.566-1.322c1.598.135 3.145.597 4.565 1.322m82.837 96.855c-.152-1.146-.475-2.216-.779-3.327-.394-1.438-.103-2.614.217-4.03 1.046-4.628-.444-9.534-3.867-12.812 3.085-7.248 1.283-16.171-4.568-21.53.052-1.364-.359-2.57-1.01-3.674a5.73 5.73 0 00-1.974-2.53 33.787 33.787 0 00-.88-.895c-.152-.15-.313-.298-.477-.448-.346-2.882-.709-5.82-1.383-8.6a22.804 22.804 0 00-.134-1.3c-.44-3.26-1.496-7.137-3.892-9.541-1.635-1.641-4.283-2.351-6.294-1.255-1.059-2.558-2.552-4.984-4.433-7.032-.976-1.535-2.233-2.88-3.873-3.892-2.35-1.45-5.077-1.596-7.519-.836-.484-3.513-2.808-6.705-6.259-7.962-3.985-1.451-8.648.266-11.083 3.63-2.259-2.875-4.826-5.711-8.376-6.87-2.74-.895-6.004-.63-8.307 1.125-.102-.097-.203-.202-.306-.296-.075-.068-.157-.126-.233-.194-2.467-4.545-7.215-7.731-12.47-7.95C88.487.229 83.22 3.529 80.55 8.374c-3.76-3.515-9.81-4.216-14.34-1.751-.593.323-1.149.71-1.672 1.137-.583.474-1.102 1.22-1.772 1.565-.938.483-1.83-.3-2.674-.683a10.716 10.716 0 00-2.453-.792c-3.222-.603-6.622.16-9.173 2.247-2.174 1.778-3.54 4.399-3.908 7.16a18.753 18.753 0 00-2.175 3.418c-4.202-4.244-12.313-3.77-15.45 1.63-.909 1.563-1.334 3.356-2.235 4.922-.398.692-.894 1.346-1.617 1.722-1.198.624-2.636.384-3.93.346-3.972-.116-7.004 2.28-8.276 6.004-1.25 3.664-.19 7.386 1.492 10.75.325.81.712 1.597 1.17 2.35-5.72 2.09-8.21 10.015-5.28 15.212.041.472.106.94.196 1.404-4.895 1.737-8.644 6.51-8.446 11.87C.21 82.312 4.315 86.96 9.443 88.29c-4.89 5.755-2.98 14.634.672 20.69 1.198 1.987 2.711 3.677 4.204 5.439 1.807 2.133 2.71 4.359 3.411 7.038 1.162 4.446 3.234 8.324 6.836 11.276 3.827 3.137 8.671 4.916 13.64 4.694.04-.001.066-.021.104-.026 1.662 6.25 4.508 12.106 8.716 17.238 6.205 7.568 14.553 13.092 23.063 17.748 4.392 2.402 8.888 4.618 13.405 6.775a111.71 111.71 0 004.074 1.86 1 1 0 00-.095.437v7.82c-.268.287-.397.709-.187 1.155 1.622 3.447 3.854 7.358 8.11 7.657 4.174.293 7.214-3.144 9.13-6.414.264-.453.127-.88-.163-1.162v-6.568c3.465-.671 6.651-2.246 9.68-4.26-.05-.034-.09-.083-.137-.12a661.054 661.054 0 0020.875-13.927c6.285-4.371 12.824-8.671 18.317-14.043.388-.38.743-.792 1.117-1.187.241-.044.473-.173.65-.42.23-.321.447-.652.668-.98.024-.027.051-.052.075-.08a.11.11 0 01-.015-.007 48.804 48.804 0 005.45-10.786c.054.02.11.032.163.055.154-.593.285-1.19.42-1.787.053-.166.112-.33.163-.496a.982.982 0 00.031-.33c.007-.031.016-.062.022-.094.098.042.195.084.316.096 4.148.398 7.978-1.531 10.933-4.324 3.095-2.926 6.016-7.15 6.587-11.448.134-1.01.115-2.038-.125-3.033-.282-1.171-1.218-2.265-.907-3.505.255-1.02 1.082-1.92 1.58-2.83a16.002 16.002 0 001.797-9.755" fill="#231F20" mask="url(#b)"/></g><g fill="#231F20"><path d="M260.333 171.6c-.73 4.647-2.733 9.657-6.243 12.91-4.183 3.875-10.038 2.543-13.553-1.526-3.221-3.73-4.584-9.003-4.592-13.844-.01-5.273 1.654-10.532 4.769-14.795.347.01.687.047 1.015.115.025-.046.053-.087.072-.139 1.253-3.469 6.33-3.87 9.348-3.06 2.883.775 5.054 2.671 6.427 5.172-.218.276-.283.654-.026 1.045a17.787 17.787 0 011.418 2.654c.122.492.232.988.33 1.487l.22-.078c1.102 3.201 1.347 6.67.815 10.06m.505-12.24c-.743-2.827-2.045-5.57-4.304-7.485a12.683 12.683 0 00-8.306-2.98c-2.717.038-5.691 1-7.382 3.145-.334-.193-.75-.183-1.07.223-6.792 8.643-8.254 22.267-1.311 31.32 3.358 4.378 9.387 6.932 14.57 4.14 4.724-2.544 7.498-8.31 8.756-13.299 1.257-4.988 1.096-10.367-.953-15.064m23.151 2.181c.073.025.146.05.219.077.099-.5.209-.994.33-1.486.402-.913.86-1.807 1.419-2.654.258-.391.192-.77-.026-1.045 1.374-2.501 3.544-4.398 6.427-5.173 3.017-.811 8.095-.408 9.348 3.06.019.053.047.094.072.14a5.736 5.736 0 011.016-.115c3.114 4.262 4.777 9.52 4.768 14.795-.008 4.84-1.371 10.114-4.592 13.843-3.515 4.07-9.37 5.402-13.553 1.526-3.51-3.252-5.513-8.262-6.243-12.91-.532-3.39-.287-6.858.815-10.058m-2.273 12.884c1.258 4.989 4.033 10.755 8.756 13.299 5.183 2.792 11.213.238 14.57-4.141 6.944-9.053 5.482-22.677-1.312-31.32-.32-.406-.735-.415-1.07-.222-1.69-2.146-4.664-3.107-7.381-3.146a12.679 12.679 0 00-8.305 2.98c-2.26 1.915-3.562 4.658-4.305 7.485-2.048 4.698-2.21 10.077-.953 15.065m-37.812-31.699c-5.254 1.32-10.039 4.292-13.533 8.434-.68.804.48 1.975 1.164 1.164a24.618 24.618 0 0112.807-8.009c1.027-.259.592-1.848-.438-1.589m63.051 3.665c-4.072-3.508-9.534-4.212-14.704-4.562-1.058-.072-1.054 1.575 0 1.647 4.688.317 9.835.888 13.539 4.08.8.688 1.97-.473 1.165-1.165"/><path d="M248.536 167.845c-.023-.101-.066-.196-.093-.297a9.42 9.42 0 00-.618-3.86 12.879 12.879 0 00-.553-1.94c-.852-2.233-2.664-4.328-5.295-3.876-1.035.177-1.925.712-2.68 1.421a7.785 7.785 0 00-2.302 1.97c-.915 1.157-1.465 2.517-1.744 3.941-.616 1.994-.639 4.192-.175 6.21.35 1.516 1.12 3.014 2.248 4.048.207.267.428.523.672.763 1.132 1.116 2.658 1.679 4.16 1.535a5.235 5.235 0 002.873-.84c2.936-1.867 4.27-5.751 3.507-9.075m45.239-7.149c-3.142-2.622-7.995-1.421-10.393 1.634a7.54 7.54 0 00-1.48 3.28c-.932.919-1.019 2.377-.688 3.708.02 1.365.347 2.725 1.028 3.919a8 8 0 001.73 2.069c.097.099.182.21.287.3a5.854 5.854 0 001.914 1.095 8.373 8.373 0 003.384.71c.082 0 .144-.029.216-.045.36-.023.723-.068 1.087-.17 1.981-.55 3.477-2.19 4.356-3.989 1.827-3.738 2.038-9.608-1.44-12.511"/></g><path d="M278.922 192.111c-.085-.534-.75-.83-1.23-.699-.569.156-.784.695-.699 1.23.4 2.506-1.635 5.202-4.135 5.558-2.625.374-5.323-1.877-5.507-4.499-.089-1.278-2.09-1.287-2 0 .207 2.96 2.395 5.537 5.26 6.306 2.89.777 5.817-.647 7.363-3.132a6.894 6.894 0 00.948-4.764m6.228 19.325c-3.104 5.438-9.11 9.02-15.406 8.938-6.167-.082-11.981-3.67-14.995-9.01-.633-1.122-2.361-.115-1.727 1.01 3.357 5.946 9.866 9.91 16.722 10 6.983.09 13.689-3.895 17.133-9.929.639-1.119-1.088-2.128-1.727-1.009" fill="#231F20"/></g></svg>
